;START_OF_HEADER
;HEADER_VERSION:0.1
;FLAVOR:Griffin
;GENERATOR.NAME:Cura_SteamEngine
;GENERATOR.VERSION:4.8.0
;GENERATOR.BUILD_DATE:2020-11-10
;TARGET_MACHINE.NAME:Ultimaker S5
;EXTRUDER_TRAIN.0.INITIAL_TEMPERATURE:200
;EXTRUDER_TRAIN.0.MATERIAL.VOLUME_USED:60931
;EXTRUDER_TRAIN.0.MATERIAL.GUID:506c9f0d-e3aa-4bd4-b2d2-23e2425b1aa9
;EXTRUDER_TRAIN.0.NOZZLE.DIAMETER:0.4
;EXTRUDER_TRAIN.0.NOZZLE.NAME:AA 0.4
;BUILD_PLATE.TYPE:glass
;BUILD_PLATE.INITIAL_TEMPERATURE:80
;BUILD_VOLUME.TEMPERATURE:28
;PRINT.TIME:14751
;PRINT.GROUPS:1
;PRINT.SIZE.MIN.X:145.947
;PRINT.SIZE.MIN.Y:92.418
;PRINT.SIZE.MIN.Z:0.2
;PRINT.SIZE.MAX.X:184.061
;PRINT.SIZE.MAX.Y:147.582
;PRINT.SIZE.MAX.Z:127.4
;END_OF_HEADER
;Generated with Cura_SteamEngine 4.8.0
T0
M82 ;absolute extrusion mode

G92 E0
M109 S200
G280 S1
G0 Z20.001
G1 F1500 E-6.5
;LAYER_COUNT:637
;LAYER:0
M107
M204 S625
M205 X8.33 Y8.33
G1 F600 Z2.2
G0 F3000 X180.396 Y131.255 Z2.2
M204 S500
M205 X5 Y5
;TYPE:SKIRT
G1 F600 Z0.2
G1 F1500 E0
G1 F1200 X179.694 Y132.158 E0.01721
G1 X178.337 Y133.634 E0.04738
G1 X177.487 Y134.416 E0.06477
G1 X175.297 Y136.07 E0.10606
G1 X174.943 Y136.275 E0.11222
G1 X173.179 Y137.228 E0.14239
G1 X172.132 Y137.686 E0.15959
G1 X169.526 Y138.54 E0.20086
G1 X169.131 Y138.618 E0.20692
G1 X167.153 Y138.949 E0.2371
G1 X166.004 Y139.044 E0.25445
G1 X164.004 Y139.044 E0.28454
G1 X162.855 Y138.948 E0.30189
G1 X160.878 Y138.617 E0.33206
G1 X159.767 Y138.336 E0.3493
G1 X157.185 Y137.407 E0.3906
G1 X156.827 Y137.227 E0.39663
G1 X155.064 Y136.274 E0.42679
G1 X154.1 Y135.644 E0.44412
G1 X151.958 Y133.927 E0.48543
G1 X151.674 Y133.635 E0.49156
G1 X150.316 Y132.159 E0.52174
G1 X149.612 Y131.255 E0.53898
G1 X148.517 Y129.58 E0.5691
G1 X147.969 Y128.568 E0.58641
G1 X147.165 Y126.735 E0.61653
G1 X146.791 Y125.644 E0.63389
G1 X146.157 Y122.973 E0.6752
G1 X146.113 Y122.577 E0.6812
G1 X145.947 Y120.583 E0.71131
G1 X145.947 Y119.43 E0.72866
G1 X146.113 Y117.432 E0.75883
G1 X146.301 Y116.302 E0.77607
G1 X147.013 Y113.652 E0.81736
G1 X147.165 Y113.276 E0.82346
G1 X147.969 Y111.442 E0.8536
G1 X148.517 Y110.428 E0.87094
G1 X149.612 Y108.753 E0.90106
G1 X150.318 Y107.847 E0.91834
G1 X151.676 Y106.372 E0.94851
G1 X152.522 Y105.593 E0.96582
G1 X154.712 Y103.939 E1.00712
G1 X155.062 Y103.737 E1.0132
G1 X156.825 Y102.783 E1.04336
G1 X157.877 Y102.321 E1.06066
G1 X160.484 Y101.468 E1.10193
G1 X160.881 Y101.39 E1.10802
G1 X162.858 Y101.06 E1.13818
G1 X164.004 Y100.965 E1.15549
G1 X166.004 Y100.965 E1.18559
G1 X167.149 Y101.06 E1.20288
G1 X169.127 Y101.39 E1.23305
G1 X170.243 Y101.673 E1.25038
G1 X172.824 Y102.601 E1.29165
G1 X173.182 Y102.782 E1.29769
G1 X174.946 Y103.736 E1.32787
G1 X175.909 Y104.365 E1.34518
G1 X178.051 Y106.082 E1.38649
G1 X178.335 Y106.374 E1.39262
G1 X179.692 Y107.849 E1.42278
G1 X180.396 Y108.753 E1.44002
G1 X181.491 Y110.428 E1.47014
G1 X182.038 Y111.438 E1.48742
G1 X183.105 Y113.967 E1.52873
G1 X183.216 Y114.36 E1.53487
G1 X183.707 Y116.301 E1.565
G1 X183.896 Y117.434 E1.58229
G1 X184.061 Y119.428 E1.6124
G1 X184.061 Y120.575 E1.62966
G1 X183.896 Y122.573 E1.65983
G1 X183.708 Y123.705 E1.67709
G1 X182.997 Y126.357 E1.71841
G1 X182.843 Y126.738 E1.7246
G1 X182.038 Y128.571 E1.75472
G1 X181.491 Y129.58 E1.77199
G1 X180.396 Y131.255 E1.80211
M204 S625
M205 X8.33 Y8.33
G0 F3000 X179.994 Y130.993
M204 S500
M205 X5 Y5
G1 F1200 X179.34 Y131.833 E1.81813
G1 X177.983 Y133.309 E1.8483
G1 X177.193 Y134.037 E1.86447
G1 X175.615 Y135.265 E1.89456
G1 X174.715 Y135.852 E1.91073
G1 X172.951 Y136.805 E1.9409
G1 X171.977 Y137.232 E1.9569
G1 X170.088 Y137.881 E1.98696
G1 X169.051 Y138.144 E2.00306
G1 X167.073 Y138.475 E2.03324
G1 X166.004 Y138.564 E2.04938
G1 X164.004 Y138.564 E2.07948
G1 X162.934 Y138.475 E2.09563
G1 X160.957 Y138.144 E2.1258
G1 X159.922 Y137.882 E2.14187
G1 X158.032 Y137.233 E2.17194
G1 X157.056 Y136.804 E2.18798
G1 X155.293 Y135.851 E2.21814
G1 X154.394 Y135.265 E2.23429
G1 X152.816 Y134.037 E2.26438
G1 X152.027 Y133.31 E2.28052
G1 X150.669 Y131.834 E2.31071
G1 X150.014 Y130.993 E2.32675
G1 X148.919 Y129.318 E2.35686
G1 X148.409 Y128.375 E2.37299
G1 X147.605 Y126.542 E2.40312
G1 X147.256 Y125.527 E2.41927
G1 X146.766 Y123.588 E2.44936
G1 X146.591 Y122.538 E2.46538
G1 X146.425 Y120.544 E2.49549
G1 X146.425 Y119.469 E2.51167
G1 X146.591 Y117.471 E2.54184
G1 X146.767 Y116.42 E2.55788
G1 X147.257 Y114.482 E2.58796
G1 X147.604 Y113.468 E2.60409
G1 X148.408 Y111.634 E2.63422
G1 X148.919 Y110.69 E2.65037
G1 X150.014 Y109.015 E2.68049
G1 X150.671 Y108.172 E2.69657
G1 X152.029 Y106.697 E2.72674
G1 X152.816 Y105.972 E2.74285
G1 X154.394 Y104.744 E2.77293
G1 X155.29 Y104.159 E2.78904
G1 X157.053 Y103.205 E2.8192
G1 X158.032 Y102.775 E2.83529
G1 X159.922 Y102.126 E2.86537
G1 X160.96 Y101.863 E2.88148
G1 X162.937 Y101.533 E2.91164
G1 X164.004 Y101.445 E2.92775
G1 X166.004 Y101.445 E2.95785
G1 X167.07 Y101.533 E2.97395
G1 X169.048 Y101.863 E3.00412
G1 X170.088 Y102.127 E3.02027
G1 X171.977 Y102.776 E3.05033
G1 X172.954 Y103.204 E3.06638
G1 X174.718 Y104.158 E3.09656
G1 X175.615 Y104.744 E3.11268
G1 X177.193 Y105.972 E3.14277
G1 X177.982 Y106.699 E3.15892
G1 X179.339 Y108.174 E3.18908
G1 X179.994 Y109.015 E3.20512
G1 X181.089 Y110.69 E3.23523
G1 X181.598 Y111.631 E3.25133
G1 X182.402 Y113.462 E3.28143
G1 X182.751 Y114.478 E3.29759
G1 X183.242 Y116.419 E3.32772
G1 X183.418 Y117.474 E3.34382
G1 X183.583 Y119.468 E3.37393
G1 X183.583 Y120.535 E3.38998
G1 X183.418 Y122.533 E3.42015
G1 X183.243 Y123.588 E3.43624
G1 X182.753 Y125.527 E3.46634
G1 X182.403 Y126.545 E3.48254
G1 X181.598 Y128.378 E3.51267
G1 X181.089 Y129.318 E3.52875
G1 X179.994 Y130.993 E3.55887
M204 S625
M205 X8.33 Y8.33
G0 F3000 X179.592 Y130.73
M204 S500
M205 X5 Y5
G1 F1200 X178.987 Y131.508 E3.5737
G1 X177.63 Y132.984 E3.60387
G1 X176.898 Y133.658 E3.61884
G1 X175.32 Y134.886 E3.64893
G1 X174.487 Y135.43 E3.66391
G1 X172.723 Y136.383 E3.69408
G1 X171.821 Y136.778 E3.70889
G1 X169.932 Y137.427 E3.73895
G1 X168.972 Y137.671 E3.75386
G1 X166.994 Y138.002 E3.78404
G1 X166.004 Y138.084 E3.79899
G1 X164.004 Y138.084 E3.82908
G1 X163.013 Y138.002 E3.84405
G1 X161.036 Y137.671 E3.87421
G1 X160.078 Y137.428 E3.88909
G1 X158.188 Y136.779 E3.91916
G1 X157.284 Y136.382 E3.93402
G1 X155.521 Y135.429 E3.96417
G1 X154.689 Y134.886 E3.97912
G1 X153.111 Y133.658 E4.00921
G1 X152.381 Y132.985 E4.02416
G1 X151.023 Y131.509 E4.05434
G1 X150.416 Y130.73 E4.0692
G1 X149.321 Y129.055 E4.09931
G1 X148.848 Y128.182 E4.11426
G1 X148.044 Y126.349 E4.14438
G1 X147.722 Y125.409 E4.15933
G1 X147.232 Y123.47 E4.18942
G1 X147.07 Y122.498 E4.20425
G1 X146.904 Y120.504 E4.23436
G1 X146.904 Y119.509 E4.24934
G1 X147.07 Y117.511 E4.27951
G1 X147.232 Y116.537 E4.29437
G1 X147.722 Y114.599 E4.32445
G1 X148.044 Y113.661 E4.33937
G1 X148.848 Y111.827 E4.36951
G1 X149.321 Y110.953 E4.38446
G1 X150.416 Y109.278 E4.41458
G1 X151.024 Y108.497 E4.42947
G1 X152.382 Y107.022 E4.45964
G1 X153.111 Y106.351 E4.47455
G1 X154.689 Y105.123 E4.50464
G1 X155.519 Y104.581 E4.51956
G1 X157.282 Y103.627 E4.54972
G1 X158.188 Y103.229 E4.56461
G1 X160.078 Y102.58 E4.59469
G1 X161.039 Y102.337 E4.6096
G1 X163.016 Y102.007 E4.63977
G1 X164.004 Y101.925 E4.65468
G1 X166.004 Y101.925 E4.68478
G1 X166.991 Y102.007 E4.69969
G1 X168.969 Y102.337 E4.72986
G1 X169.932 Y102.581 E4.74481
G1 X171.821 Y103.23 E4.77487
G1 X172.725 Y103.626 E4.78972
G1 X174.489 Y104.58 E4.8199
G1 X175.32 Y105.123 E4.83484
G1 X176.898 Y106.351 E4.86493
G1 X177.629 Y107.024 E4.87988
G1 X178.986 Y108.499 E4.91004
G1 X179.592 Y109.278 E4.92489
G1 X180.687 Y110.953 E4.95501
G1 X181.159 Y111.824 E4.96992
G1 X181.963 Y113.655 E5.00001
G1 X182.286 Y114.596 E5.01498
G1 X182.777 Y116.537 E5.04511
G1 X182.94 Y117.513 E5.06
G1 X183.105 Y119.507 E5.09011
G1 X183.105 Y120.496 E5.10499
G1 X182.94 Y122.494 E5.13516
G1 X182.777 Y123.47 E5.15005
G1 X182.287 Y125.409 E5.18015
G1 X181.964 Y126.352 E5.19515
G1 X181.159 Y128.185 E5.22528
G1 X180.687 Y129.055 E5.24017
G1 X179.592 Y130.73 E5.27028
M204 S625
M205 X8.33 Y8.33
G0 F3000 X179.19 Y130.467
M204 S500
M205 X5 Y5
G1 F1200 X178.634 Y131.183 E5.28393
G1 X177.277 Y132.659 E5.3141
G1 X176.603 Y133.279 E5.32788
G1 X175.025 Y134.507 E5.35797
G1 X174.259 Y135.008 E5.37174
G1 X172.495 Y135.961 E5.40191
G1 X171.665 Y136.324 E5.41555
G1 X169.776 Y136.973 E5.4456
G1 X168.893 Y137.197 E5.45931
G1 X166.915 Y137.528 E5.48949
G1 X166.004 Y137.604 E5.50325
G1 X164.004 Y137.604 E5.53335
G1 X163.092 Y137.528 E5.54712
G1 X161.115 Y137.197 E5.57728
G1 X160.234 Y136.974 E5.59096
G1 X158.344 Y136.325 E5.62103
G1 X157.512 Y135.96 E5.6347
G1 X155.749 Y135.007 E5.66486
G1 X154.984 Y134.507 E5.67861
G1 X153.406 Y133.279 E5.7087
G1 X152.734 Y132.66 E5.72245
G1 X151.376 Y131.184 E5.75264
G1 X150.818 Y130.467 E5.76631
G1 X149.723 Y128.792 E5.79642
G1 X149.288 Y127.989 E5.81016
G1 X148.484 Y126.156 E5.84029
G1 X148.187 Y125.291 E5.85405
G1 X147.697 Y123.352 E5.88414
G1 X147.548 Y122.458 E5.89778
G1 X147.382 Y120.464 E5.92789
G1 X147.382 Y119.549 E5.94166
G1 X147.548 Y117.551 E5.97183
G1 X147.697 Y116.655 E5.9855
G1 X148.187 Y114.717 E6.01558
G1 X148.483 Y113.854 E6.02931
G1 X149.287 Y112.02 E6.05945
G1 X149.723 Y111.216 E6.07321
G1 X150.818 Y109.541 E6.10333
G1 X151.377 Y108.822 E6.11703
G1 X152.735 Y107.347 E6.1472
G1 X153.406 Y106.73 E6.16092
G1 X154.984 Y105.502 E6.19101
G1 X155.747 Y105.003 E6.20473
G1 X157.51 Y104.049 E6.23489
G1 X158.344 Y103.683 E6.2486
G1 X160.234 Y103.034 E6.27867
G1 X161.118 Y102.81 E6.29239
G1 X163.095 Y102.48 E6.32256
G1 X164.004 Y102.405 E6.33628
G1 X166.004 Y102.405 E6.36638
G1 X166.912 Y102.48 E6.38009
G1 X168.89 Y102.81 E6.41027
G1 X169.776 Y103.035 E6.42402
G1 X171.665 Y103.684 E6.45408
G1 X172.497 Y104.049 E6.46775
G1 X174.261 Y105.003 E6.49793
G1 X175.025 Y105.502 E6.51166
G1 X176.603 Y106.73 E6.54175
G1 X177.275 Y107.349 E6.5555
G1 X178.632 Y108.824 E6.58566
G1 X179.19 Y109.541 E6.59934
G1 X180.285 Y111.216 E6.62945
G1 X180.719 Y112.017 E6.64316
G1 X181.523 Y113.848 E6.67325
G1 X181.82 Y114.713 E6.68702
G1 X182.311 Y116.654 E6.71714
G1 X182.461 Y117.553 E6.73086
G1 X182.626 Y119.547 E6.76097
G1 X182.626 Y120.456 E6.77465
G1 X182.461 Y122.454 E6.80482
G1 X182.312 Y123.352 E6.81852
G1 X181.822 Y125.291 E6.84861
G1 X181.524 Y126.159 E6.86242
G1 X180.719 Y127.992 E6.89255
G1 X180.285 Y128.792 E6.90625
G1 X179.19 Y130.467 E6.93636
M204 S625
M205 X8.33 Y8.33
G0 F3000 X178.789 Y130.205
M204 S500
M205 X5 Y5
G1 F1200 X178.28 Y130.858 E6.94882
G1 X176.923 Y132.334 E6.97899
G1 X174.73 Y134.129 E7.02164
G1 X174.031 Y134.585 E7.0342
G1 X172.267 Y135.538 E7.06437
G1 X169.62 Y136.52 E7.10685
G1 X168.814 Y136.724 E7.11937
G1 X166.836 Y137.055 E7.14955
G1 X164.004 Y137.124 E7.19218
G1 X163.172 Y137.055 E7.20474
G1 X161.195 Y136.724 E7.2349
G1 X158.5 Y135.871 E7.27744
G1 X157.74 Y135.538 E7.28993
G1 X155.977 Y134.585 E7.32009
G1 X153.701 Y132.901 E7.36269
G1 X153.087 Y132.335 E7.37526
G1 X151.729 Y130.859 E7.40544
G1 X151.219 Y130.205 E7.41792
G1 X150.124 Y128.53 E7.44804
G1 X149.727 Y127.796 E7.46059
G1 X148.923 Y125.963 E7.49071
G1 X148.163 Y123.235 E7.53333
G1 X148.026 Y122.418 E7.5458
G1 X147.86 Y120.424 E7.57591
G1 X147.86 Y119.589 E7.58847
G1 X148.026 Y117.591 E7.61864
G1 X148.653 Y114.835 E7.66118
G1 X148.923 Y114.046 E7.67373
G1 X149.727 Y112.212 E7.70386
G1 X150.124 Y111.478 E7.71642
G1 X151.219 Y109.803 E7.74653
G1 X151.73 Y109.147 E7.75905
G1 X153.088 Y107.672 E7.78922
G1 X155.279 Y105.88 E7.83181
G1 X155.975 Y105.425 E7.84432
G1 X157.738 Y104.471 E7.87449
G1 X160.39 Y103.488 E7.91705
G1 X161.197 Y103.284 E7.92958
G1 X163.174 Y102.954 E7.95974
G1 X166.004 Y102.885 E8.00234
G1 X166.833 Y102.954 E8.01486
G1 X168.811 Y103.284 E8.04504
G1 X171.509 Y104.137 E8.08762
G1 X172.269 Y104.471 E8.10011
G1 X174.033 Y105.425 E8.13029
G1 X176.308 Y107.108 E8.17287
G1 X176.922 Y107.674 E8.18544
G1 X178.279 Y109.149 E8.2156
G1 X178.789 Y109.803 E8.22808
G1 X179.884 Y111.478 E8.2582
G1 X181.084 Y114.041 E8.30078
G1 X181.355 Y114.831 E8.31335
G1 X181.846 Y116.772 E8.34348
G1 X181.983 Y117.592 E8.35599
G1 X182.148 Y119.586 E8.3861
G1 X182.148 Y120.417 E8.39861
G1 X181.983 Y122.415 E8.42877
G1 X181.356 Y125.174 E8.47135
G1 X181.085 Y125.966 E8.48395
G1 X180.28 Y127.799 E8.51408
G1 X179.884 Y128.53 E8.52659
G1 X178.789 Y130.205 E8.5567
M204 S625
M205 X8.33 Y8.33
G0 F3000 X178.387 Y129.942
M204 S500
M205 X5 Y5
G1 F1200 X177.927 Y130.533 E8.56797
G1 X176.57 Y132.009 E8.59814
G1 X174.436 Y133.75 E8.63959
G1 X173.802 Y134.163 E8.65097
G1 X172.038 Y135.116 E8.68115
G1 X169.464 Y136.066 E8.72243
G1 X168.735 Y136.25 E8.73375
G1 X166.757 Y136.581 E8.76393
G1 X164.004 Y136.644 E8.80537
G1 X163.251 Y136.581 E8.81674
G1 X161.274 Y136.25 E8.8469
G1 X158.656 Y135.417 E8.88825
G1 X157.969 Y135.115 E8.89954
G1 X156.206 Y134.162 E8.9297
G1 X153.995 Y132.522 E8.97112
G1 X153.44 Y132.01 E8.98249
G1 X152.082 Y130.534 E9.01267
G1 X151.621 Y129.942 E9.02396
G1 X150.526 Y128.267 E9.05408
G1 X150.167 Y127.604 E9.06542
G1 X149.363 Y125.771 E9.09554
G1 X148.628 Y123.117 E9.13698
G1 X148.505 Y122.378 E9.14826
G1 X148.339 Y120.384 E9.17837
G1 X148.339 Y119.628 E9.18974
G1 X148.505 Y117.63 E9.21991
G1 X149.118 Y114.952 E9.26126
G1 X149.363 Y114.239 E9.2726
G1 X150.167 Y112.405 E9.30274
G1 X150.526 Y111.741 E9.3141
G1 X151.621 Y110.066 E9.34421
G1 X152.083 Y109.472 E9.35553
G1 X153.441 Y107.997 E9.38571
G1 X155.573 Y106.259 E9.4271
G1 X156.204 Y105.848 E9.43843
G1 X157.967 Y104.894 E9.4686
G1 X160.546 Y103.942 E9.50997
G1 X161.276 Y103.757 E9.5213
G1 X163.253 Y103.427 E9.55146
G1 X166.004 Y103.365 E9.59287
G1 X166.754 Y103.427 E9.60419
G1 X168.732 Y103.757 E9.63437
G1 X171.353 Y104.591 E9.67576
G1 X172.04 Y104.893 E9.68706
G1 X173.804 Y105.847 E9.71723
G1 X176.014 Y107.487 E9.75865
G1 X176.569 Y107.999 E9.77001
G1 X177.926 Y109.474 E9.80017
G1 X178.387 Y110.066 E9.81146
G1 X179.482 Y111.741 E9.84158
G1 X180.644 Y114.234 E9.88297
G1 X180.89 Y114.949 E9.89435
G1 X181.381 Y116.89 E9.92448
G1 X181.504 Y117.632 E9.93579
G1 X181.669 Y119.626 E9.9659
G1 X181.67 Y120.377 E9.97721
G1 X181.505 Y122.375 E10.00737
G1 X180.891 Y125.056 E10.04876
G1 X180.645 Y125.773 E10.06017
G1 X179.84 Y127.606 E10.0903
G1 X179.482 Y128.267 E10.10161
G1 X178.387 Y129.942 E10.13172
M204 S625
M205 X8.33 Y8.33
G0 F3000 X177.985 Y129.68
M204 S500
M205 X5 Y5
G1 F1200 X177.574 Y130.208 E10.14179
G1 X176.217 Y131.684 E10.17197
G1 X174.141 Y133.371 E10.21222
G1 X173.574 Y133.741 E10.22241
G1 X171.81 Y134.694 E10.25258
G1 X169.308 Y135.612 E10.29269
G1 X168.655 Y135.777 E10.30282
G1 X166.677 Y136.108 E10.333
G1 X164.004 Y136.164 E10.37323
G1 X163.33 Y136.108 E10.38341
G1 X161.353 Y135.777 E10.41358
G1 X158.812 Y134.963 E10.45373
G1 X158.197 Y134.693 E10.46384
G1 X156.434 Y133.74 E10.494
G1 X154.29 Y132.143 E10.53423
G1 X153.793 Y131.685 E10.5444
G1 X152.435 Y130.209 E10.57458
G1 X152.023 Y129.68 E10.58467
G1 X150.928 Y128.005 E10.61478
G1 X150.607 Y127.411 E10.62494
G1 X149.803 Y125.578 E10.65506
G1 X149.093 Y123 E10.6953
G1 X148.983 Y122.338 E10.7054
G1 X148.817 Y120.344 E10.73551
G1 X148.817 Y119.668 E10.74569
G1 X148.983 Y117.67 E10.77586
G1 X149.583 Y115.07 E10.81601
G1 X149.802 Y114.432 E10.82616
G1 X150.606 Y112.598 E10.8563
G1 X150.928 Y112.003 E10.86648
G1 X152.023 Y110.328 E10.89659
G1 X152.436 Y109.798 E10.9067
G1 X153.794 Y108.323 E10.93687
G1 X155.868 Y106.638 E10.97709
G1 X156.432 Y106.27 E10.98722
G1 X158.195 Y105.316 E11.01739
G1 X160.702 Y104.396 E11.05757
G1 X161.355 Y104.231 E11.06771
G1 X163.332 Y103.901 E11.09787
G1 X166.004 Y103.845 E11.13809
G1 X166.675 Y103.901 E11.14822
